resources/assets/icons/brands/x.svg

<svg viewBox="0 0 20 20" fill="none" xmlns="http://www.w3.org/2000/svg">
<path d="M11.5932 8.81319L17.2394 2.25H15.9014L10.9988 7.94873L7.08316 2.25H2.56689L8.48816 10.8675L2.56689 17.75H3.90493L9.08218 11.732L13.2174 17.75H17.7337L11.5929 8.81319H11.5932ZM9.76056 10.9434L9.16061 10.0853L4.38705 3.25725H6.4422L10.2945 8.7677L10.8945 9.62581L15.902 16.7886H13.8469L9.76056 10.9437V10.9434Z" fill="currentColor" stroke="currentColor" stroke-width="1.0764"/>
</svg>

<svg viewBox="0 0 20 20" fill="none" xmlns="http://www.w3.org/2000/svg"><path d="M11.593 8.813 17.24 2.25h-1.338L11 7.949 7.083 2.25H2.567l5.921 8.617-5.921 6.883h1.338l5.177-6.018 4.135 6.018h4.517l-6.141-8.937Zm-1.832 2.13-.6-.858-4.774-6.828h2.055l3.852 5.51.6.859 5.008 7.163h-2.055L9.76 10.944Z" fill="currentColor" stroke="currentColor" stroke-width="1.076"/></svg>
